!!!OTL: Lied zum langen Tanz der Ditmarsen.
!!!ARE: Europa, Mitteleuropa, Deutschland
!!!SCT: A0294
!!!TXL: @@NDS
!!!YEM: Copyright 1995, estate of Helmut Schaffrath.
**kern	**text
*M6/4	*
*k[]	*
*C:	*
{4c	Ick
=1	=1
2c	weet
4c	mi
2g	ei-
4g	-ne
=2	=2
2g	ſcho-
4g	-ne
2g}	magt,
{4g	ick
=3	=3
2f	nem
4g	ſe
2a	gern
4g	to
=4	=4
(2g	wî-
4f)	.
2e	ve:
4r}	.
=5	=5
{2f	Konde
4e	ſe
2g	mir
4e	van
=6	=6
2f	ha-
4e	-ver-
2g}	-ſtrô
{4e	ſpin-
=7	=7
2f	-nen
4f	de
2g	klei-
4e	-nen
=8	=8
2.d	ſî-
2c}	-den.
==	==
!!!GTL: Tanz- und Kranzlieder
!!!AGN: Romanze, Ballade, Lied
!! Melodie wie A0293,nur im Tripeltakt.
!!!ONB: ESAC (Essen Associative Code) Database: ALTDEU
!!!AMT: compound duple
!!!AIN: vox
!!!EED: Helmut Schaffrath
!!!EEV: 1.0
!!!URL-scan: https://rosdok.uni-rostock.de/mcrviewer/recordIdentifier/rosdok_ppn738218359/iview2/phys_0448.iview2?x=-495.6391625615763&y=92.88423646148294&scale=0.4629418472063854&rotation=0&layout=singlePageLayout&logicalDiv=log_0012
!!!ENC: Anna Maria Matuszewska
!!!EEV: 2024/12/03
*-	*-
